images/plan-bg.svg

<svg width="427" height="418" viewBox="0 0 427 418" fill="none" xmlns="http://www.w3.org/2000/svg">
<path opacity="0.5" fill-rule="evenodd" clip-rule="evenodd" d="M29.2302 4H91.1518V27.4962L328.014 28.796V4.09998L400.282 4C410.868 4 423.761 20.4974 423.761 33.5952V112.083H398.292L397.974 203.568H424L423.761 389.103C423.761 402.301 415.086 413.099 404.58 412.999L328.173 412.899L328.093 389.203L91.4702 388.403V412.799L28.3547 412.899C17.8488 412.899 4.31836 398.702 4.23877 385.504L4 203.568L25.4895 203.468L25.6487 113.482L4.31836 113.682V29.9958C4.15918 16.8979 18.6447 4 29.2302 4Z" fill="black"/>
<path d="M30.9778 0H91.4204H94.2076V3.49777V25.184H325.307L325.386 3.79758V0.299809H328.174L396.022 0H396.181C404.623 0 412.347 4.3972 417.922 11.2928C423.496 18.2884 427 27.8822 427 38.3756V38.5754L426.92 113.028V116.526H424.133H400.8L400.88 199.673H424.133H426.92V203.171L427 379.225C427 389.818 423.576 399.512 418.001 406.507C412.427 413.503 404.702 417.8 396.181 417.9H328.253H325.466V414.402L325.386 393.016L94.2872 392.816V414.502V418H91.5H31.0574C22.5366 418 14.812 413.703 9.15796 406.707C3.58355 399.712 0.0796345 390.018 0.0796345 379.425V203.37V199.873H2.86684H22.7755V116.926H2.86684H0V113.428V38.6754C0 27.9822 3.50392 18.3883 9.07833 11.3927C14.7324 4.29726 22.4569 0 30.9778 0ZM88.6332 6.99554H30.9778C23.97 6.99554 17.6789 10.5933 13.0601 16.2896C8.44125 21.986 5.57441 29.9809 5.57441 38.6754V109.93H25.483H28.2702V113.428V203.37V206.868H25.483H5.49478V379.425C5.49478 388.119 8.36162 396.014 12.9804 401.81C17.5992 407.507 23.97 411.104 30.8982 411.104H88.5535V389.418V385.92H91.3407L328.094 386.22H330.881V389.718L330.961 411.104H396.102C403.03 411.104 409.401 407.507 413.94 401.81C418.479 396.114 421.346 388.219 421.346 379.525L421.266 206.968H398.013H395.226V203.47L395.146 113.328V109.83H397.933H421.266L421.346 38.7753V38.5754C421.346 29.9809 418.479 22.0859 413.86 16.3896C409.321 10.6932 402.95 7.09548 396.102 7.09548H395.943L330.961 7.39529L330.881 28.7817V32.2794H328.094H91.5H88.7128V28.7817V6.99554H88.6332Z" fill="url(#paint0_linear_2138_188)"/>
<defs>
<linearGradient id="paint0_linear_2138_188" x1="-95.4239" y1="16.839" x2="327.123" y2="707.723" gradientUnits="userSpaceOnUse">
<stop stop-color="white"/>
<stop offset="0.1685" stop-color="#5E5E5E"/>
<stop offset="0.2637" stop-color="#DEDEDE"/>
<stop offset="0.3956" stop-color="#8E8E8E"/>
<stop offset="0.5421" stop-color="#636363"/>
<stop offset="0.6264" stop-color="#5F5F5F"/>
<stop offset="0.7179" stop-color="#EAEAEA"/>
<stop offset="0.7912" stop-color="white"/>
<stop offset="1" stop-color="#454545"/>
</linearGradient>
</defs>
</svg>

<svg width="427" height="418" fill="none" xmlns="http://www.w3.org/2000/svg"><path opacity=".5" fill-rule="evenodd" clip-rule="evenodd" d="M29.23 4h61.922v23.496l236.862 1.3V4.1l72.268-.1c10.586 0 23.479 16.497 23.479 29.595v78.488h-25.469l-.318 91.485H424l-.239 185.535c0 13.198-8.675 23.996-19.181 23.896l-76.407-.1-.08-23.696-236.623-.8v24.396l-63.115.1c-10.506 0-24.037-14.197-24.116-27.395L4 203.568l21.49-.1.159-89.986-21.33.2V29.996C4.158 16.898 18.644 4 29.23 4z" fill="#000"/><path d="M30.978 0h63.23v25.184h231.099l.079-21.386V.3h2.788l67.848-.3h.159c8.442 0 16.166 4.397 21.741 11.293 5.574 6.995 9.078 16.59 9.078 27.083v.2l-.08 74.452v3.498H400.8l.08 83.147h26.04v3.498l.08 176.054c0 10.593-3.424 20.287-8.999 27.282-5.574 6.996-13.299 11.293-21.82 11.393h-70.715v-3.498l-.08-21.386-231.099-.2V418h-63.23c-8.52 0-16.245-4.297-21.899-11.293C3.584 399.712.08 390.018.08 379.425V199.873h22.696v-82.947H0V38.675c0-10.693 3.504-20.287 9.078-27.282C14.732 4.297 22.457 0 30.978 0zm57.655 6.996H30.978c-7.008 0-13.3 3.597-17.918 9.294-4.619 5.696-7.486 13.69-7.486 22.385v71.255H28.27v96.938H5.495v172.557c0 8.694 2.867 16.589 7.485 22.385 4.62 5.697 10.99 9.294 17.918 9.294h57.655V385.92h2.788l236.753.3h2.787v3.498l.08 21.386h65.141c6.928 0 13.299-3.597 17.838-9.294 4.539-5.696 7.406-13.591 7.406-22.285l-.08-172.557h-26.04v-3.498l-.08-90.142v-3.498h26.12l.08-71.055v-.2c0-8.594-2.867-16.49-7.486-22.185-4.539-5.697-10.91-9.295-17.758-9.295h-.159l-64.982.3-.08 21.387v3.497H88.713V6.996h-.08z" fill="url(#paint0_linear_2138_188)"/><defs><linearGradient id="paint0_linear_2138_188" x1="-95.424" y1="16.839" x2="327.123" y2="707.723" gradientUnits="userSpaceOnUse"><stop stop-color="#fff"/><stop offset=".169" stop-color="#5E5E5E"/><stop offset=".264" stop-color="#DEDEDE"/><stop offset=".396" stop-color="#8E8E8E"/><stop offset=".542" stop-color="#636363"/><stop offset=".626" stop-color="#5F5F5F"/><stop offset=".718" stop-color="#EAEAEA"/><stop offset=".791" stop-color="#fff"/><stop offset="1" stop-color="#454545"/></linearGradient></defs></svg>
